X:3
T:Cameron's got his wife again
M:C|
L:1/8
R:Reel
S:William Vickers' 1770 music manuscript book (Northumberland)
K:D
B|dABF A/A/A AB|dABF E/E/E Ee|dABF Dgfe|dBAF D/D/D D:|
|:g|fdaf egfe|fdfa B/B/B Bg|fdaf egfe|dBAF D/D/D D:|

